X:18
T: Da kommen die vier schwarzen Brder (Band 1), S. 57
N: P0792
O: Lothringen
S: PINCK, Louis: Verklingende Weisen, Bd 1, Metz 1928]
R: geistliche, religise Lieder, Tod]
M: 2/4
L: 1/16
K: G
D2D2G2 | G3G(3G2G2G2 | G2B2d2
G2 | G2G2A4 | A2c2B2A2 | G4z2
G2 | F2G2A4 | A4A2c2 | B3A2G
B2 | B3BB2A2 | G2B2d2B2 | A4z2
G2 | A6GG | A4G2A2 | B4A2A2 | G4z2
B2 | B3BB2A2 | G2B2d2B2 | A4z2
G2 | A6GG | A4G2A2 | B4A2A2 | G2

@@@ Tune index: 7568
